X:64
T:triban margam a llangynwyd
H:cyhoeddwyd gan cadrawd tua 1883
Z:crm
M:4/4
Q:1/4=90
K:G
B/A/|G>GG/A/B/c/|ddzd|d/e/d/c/ B>A|G/A/B/c/d>e|edc/d/e/=f/|edzd/c/|
Bdce|dfg>z|d/g/f/a/gf/e/|e/d/{c}BB/A/G/F/|GGzd/c/|
B/d/B/G/B/d/B/G/|d/g/f/a/gf/e/|e/d/c/B/B/A/G/F/|GGz||
W:
W:Fe ddyle'r dyn na weno
W:Pan glywai gan a jigo
W:'I groci'n gelain yn ddi-lai
W:Y botach, a'i shipeto
